dist/images/icons/recline-green.svg

<svg width="22" height="22" viewBox="0 0 22 22" fill="none" xmlns="http://www.w3.org/2000/svg">
<path d="M6.95783 4.95903C6.24283 4.24403 6.24283 3.07986 6.95783 2.36486C7.67283 1.64986 8.83699 1.64986 9.55199 2.36486C10.267 3.07986 10.267 4.24403 9.55199 4.95903C8.82783 5.6832 7.67283 5.6832 6.95783 4.95903ZM5.50033 14.6665V7.3332C5.50033 6.82903 5.08783 6.41653 4.58366 6.41653C4.07949 6.41653 3.66699 6.82903 3.66699 7.3332V14.6665C3.66699 17.1965 5.72033 19.2499 8.25033 19.2499H12.8337C13.3378 19.2499 13.7503 18.8374 13.7503 18.3332C13.7503 17.829 13.3378 17.4165 12.8337 17.4165H8.25033C6.72866 17.4165 5.50033 16.1882 5.50033 14.6665ZM17.6737 17.7374L14.2178 14.2815C13.8787 13.9424 13.4112 13.7499 12.9253 13.7499H10.542V10.3765C11.5412 11.1924 12.9803 11.9349 14.392 12.2282C15.0062 12.3565 15.5837 11.8982 15.5837 11.2749C15.5837 10.789 15.2262 10.3949 14.7403 10.3124C13.4387 10.0924 12.1003 9.38653 11.3028 8.50653L10.0195 7.0857C9.84533 6.8932 9.62533 6.73736 9.38699 6.62736C9.12116 6.49903 8.81866 6.41653 8.50699 6.41653H8.47949C7.34283 6.41653 6.41699 7.34236 6.41699 8.47903V13.7499C6.41699 15.2715 7.64533 16.4999 9.16699 16.4999H13.8145L16.3628 19.0482C16.7203 19.4057 17.3162 19.4057 17.6737 19.0482C18.0403 18.6907 18.0403 18.104 17.6737 17.7374Z" fill="#8DD3BB"/>
</svg>

<svg width="22" height="22" fill="none" xmlns="http://www.w3.org/2000/svg"><path d="M6.958 4.959a1.837 1.837 0 010-2.594 1.837 1.837 0 012.594 0 1.837 1.837 0 010 2.594 1.82 1.82 0 01-2.594 0zM5.5 14.666V7.333a.92.92 0 00-.916-.916.92.92 0 00-.917.916v7.333A4.585 4.585 0 008.25 19.25h4.584a.92.92 0 00.916-.917.92.92 0 00-.916-.916H8.25a2.746 2.746 0 01-2.75-2.75zm12.174 3.071l-3.456-3.455a1.831 1.831 0 00-1.293-.532h-2.383v-3.373c1 .815 2.438 1.558 3.85 1.851a.982.982 0 001.192-.953c0-.486-.358-.88-.844-.963-1.301-.22-2.64-.925-3.437-1.805l-1.284-1.421a1.967 1.967 0 00-.632-.459 2.04 2.04 0 00-.88-.21h-.028a2.066 2.066 0 00-2.062 2.062v5.27a2.746 2.746 0 002.75 2.75h4.648l2.548 2.55a.935.935 0 001.31 0 .919.919 0 000-1.312z" fill="#8DD3BB"/></svg>
